images/svg/whatsup-tme.svg

<svg class="contact-buttons__checkbox-image contact-buttons__checkbox-image__open" width="34" height="21" viewBox="0 0 34 21" fill="none" xmlns="http://www.w3.org/2000/svg">
  <path d="M24.0893 18.4168C28.4615 18.4168 32.0059 14.8724 32.0059 10.5002C32.0059 6.12791 28.4615 2.5835 24.0893 2.5835C19.717 2.5835 16.1726 6.12791 16.1726 10.5002C16.1726 14.8724 19.717 18.4168 24.0893 18.4168Z" fill="#5A49FF"></path>
  <path fill-rule="evenodd" clip-rule="evenodd" d="M33.606 10.5001C33.606 15.756 29.3452 20.0167 24.0893 20.0167C18.8334 20.0167 14.5726 15.756 14.5726 10.5001C14.5726 5.24415 18.8334 0.983398 24.0893 0.983398C29.3452 0.983398 33.606 5.24415 33.606 10.5001ZM32.006 10.5001C32.006 14.8723 28.4616 18.4167 24.0893 18.4167C19.717 18.4167 16.1726 14.8723 16.1726 10.5001C16.1726 6.12781 19.717 2.5834 24.0893 2.5834C28.4616 2.5834 32.006 6.12781 32.006 10.5001Z" fill="white"></path>
  <path d="M28.04 7.22505C28.1105 6.76957 27.6775 6.41006 27.2725 6.58787L19.2063 10.1293C18.9159 10.2569 18.9371 10.6968 19.2383 10.7927L20.9018 11.3224C21.2193 11.4235 21.563 11.3712 21.8403 11.1797L25.5906 8.5887C25.7037 8.51055 25.827 8.67137 25.7304 8.77095L23.0308 11.5542C22.7689 11.8242 22.8209 12.2818 23.1359 12.4793L26.1584 14.3747C26.4974 14.5872 26.9335 14.3737 26.9968 13.964L28.04 7.22505Z" fill="white"></path>
  <path d="M18.2084 10.4998C18.2084 15.3093 14.3095 19.2082 9.50008 19.2082C7.66567 19.2082 5.9637 18.641 4.56003 17.6724L1.58342 18.4165L2.36343 15.4915C1.37297 14.078 0.791748 12.3568 0.791748 10.4998C0.791748 5.69036 4.6906 1.7915 9.50008 1.7915C14.3095 1.7915 18.2084 5.69036 18.2084 10.4998Z" fill="#5A49FF"></path>
  <path fill-rule="evenodd" clip-rule="evenodd" d="M9.5 20C14.7467 20 19 15.7467 19 10.5C19 5.25329 14.7467 1 9.5 1C4.25329 1 0 5.25329 0 10.5C0 12.2038 0.448536 13.8029 1.23396 15.1855L0 20L4.96365 18.849C6.31166 19.583 7.85711 20 9.5 20ZM9.5 18.5385C13.9396 18.5385 17.5385 14.9396 17.5385 10.5C17.5385 6.06048 13.9396 2.46154 9.5 2.46154C5.06048 2.46154 1.46154 6.06048 1.46154 10.5C1.46154 12.2141 1.99805 13.8029 2.91232 15.1076L2.19231 17.8077L4.93995 17.1208C6.23566 18.0149 7.80669 18.5385 9.5 18.5385Z" fill="white"></path>
  <path d="M6.77456 6.18169C6.52253 5.70911 6.13578 5.75095 5.74517 5.75095C5.04702 5.75095 3.95837 6.53151 3.95837 7.98424C3.95837 9.17479 4.52044 10.478 6.41439 12.4276C8.24219 14.3091 10.6439 15.2823 12.6377 15.2492C14.6315 15.2161 15.0417 13.6146 15.0417 13.0738C15.0417 12.8341 14.8823 12.7145 14.7726 12.682C14.0931 12.3776 12.84 11.8105 12.5548 11.704C12.2697 11.5974 12.1208 11.7416 12.0283 11.82C11.7697 12.0499 11.2572 12.7278 11.0817 12.8802C10.9062 13.0327 10.6446 12.9555 10.5357 12.8979C10.135 12.7478 9.04864 12.2968 8.18275 11.5133C7.11178 10.5443 7.04893 10.2109 6.84718 9.91416C6.6858 9.67672 6.80425 9.53111 6.86331 9.46743C7.09406 9.21897 7.41265 8.83529 7.55556 8.64465C7.69838 8.45394 7.58502 8.16449 7.51693 7.98424C7.22424 7.20883 6.97623 6.55973 6.77456 6.18169Z" fill="white"></path>
</svg>

<svg class="contact-buttons__checkbox-image contact-buttons__checkbox-image__open" width="34" height="21" fill="none" xmlns="http://www.w3.org/2000/svg"><path d="M24.09 18.417a7.917 7.917 0 100-15.833 7.917 7.917 0 000 15.833z" fill="#5A49FF"/><path fill-rule="evenodd" clip-rule="evenodd" d="M33.606 10.5a9.517 9.517 0 01-9.517 9.517 9.517 9.517 0 110-19.034 9.517 9.517 0 019.517 9.517zm-1.6 0a7.917 7.917 0 11-15.833 0 7.917 7.917 0 0115.833 0z" fill="#fff"/><path d="M28.04 7.225c.07-.455-.363-.815-.767-.637l-8.067 3.541c-.29.128-.269.568.032.664l1.664.53c.317.1.661.048.938-.143l3.75-2.591c.114-.078.237.082.14.182l-2.7 2.783a.606.606 0 00.106.925l3.022 1.896c.34.212.775-.001.839-.411l1.043-6.739z" fill="#fff"/><path d="M18.208 10.5A8.708 8.708 0 014.56 17.672l-2.977.744.78-2.925A8.708 8.708 0 1118.208 10.5z" fill="#5A49FF"/><path fill-rule="evenodd" clip-rule="evenodd" d="M9.5 20a9.5 9.5 0 10-8.266-4.815L0 20l4.964-1.151A9.457 9.457 0 009.5 20zm0-1.462a8.038 8.038 0 10-6.588-3.43l-.72 2.7 2.748-.687a8.001 8.001 0 004.56 1.418z" fill="#fff"/><path d="M6.775 6.182c-.252-.473-.64-.431-1.03-.431-.698 0-1.787.78-1.787 2.233 0 1.19.562 2.494 2.456 4.444 1.828 1.881 4.23 2.854 6.224 2.821 1.994-.033 2.404-1.634 2.404-2.175 0-.24-.16-.36-.27-.392-.679-.304-1.932-.872-2.217-.978-.285-.107-.434.038-.527.116-.258.23-.77.908-.946 1.06-.176.153-.437.075-.546.018-.401-.15-1.487-.601-2.353-1.385-1.071-.969-1.134-1.302-1.336-1.599-.161-.237-.043-.383.016-.447.231-.248.55-.632.693-.822.142-.191.029-.48-.04-.66-.292-.776-.54-1.425-.741-1.803z" fill="#fff"/></svg>
